static/assets/items/surge-alloy.svg

<svg xmlns="http://www.w3.org/2000/svg" viewBox="0 0 32 32"><path d="M0 .5V0h32v32H0V.5M17.5 30q.5 0 .875-.125T19 29.5l.5-.5.5-.5.5-.5.5-.5.5-.5.5-.5.5-.5.5-.5.5-.5.5-.5.5-.5.5-.5.5-.5.5-.5.5-.5q.25-.25.375-.625t.5-.5q.375-.125.625-.375l.5-.5.5-.5.5-.5.5-.5.5-.5q.25-.25.375-.625T31 16.5q0-.5-.125-.875T30.5 15l-.5-.5-.5-.5-.5-.5-.5-.5-.5-.5-.5-.5-.5-.5-.5-.5-.5-.5-.5-.5-.5-.5-.5-.5-.5-.5-.5-.5-.5-.5-.5-.5-.5-.5-.5-.5-.5-.5-.5-.5-.5-.5-.5-.5-.5-.5-.5-.5-.5-.5-.5-.5-.5-.5q-.25-.25-.625-.375T15.5 1h-1q-.5 0-.875.125T13 1.5l-.5.5-.5.5-.5.5-.5.5-.5.5-.5.5-.5.5-.5.5-.5.5-.5.5-.5.5-.5.5-.5.5-.5.5-.5.5-.5.5-.5.5q-.25.25-.375.625t-.5.5Q3.25 11.25 3 11.5l-.5.5-.5.5-.5.5q-.25.25-.375.625t0 .75q.125.375.375.625l.5.5.5.5.5.5.5.5.5.5.5.5.5.5.5.5.5.5.5.5.5.5.5.5.5.5.5.5.5.5.5.5.5.5.5.5.5.5.5.5.5.5.5.5.5.5.5.5.5.5.5.5.5.5.5.5.5.5q.25.25.625.375T17.5 30" fill="none"/><path d="M13 1.5q.25-.25.625-.375T14.5 1h1q.5 0 .875.125T17 1.5l.5.5.5.5.5.5.5.5.5.5.5.5.5.5.5.5.5.5.5.5.5.5.5.5.5.5.5.5.5.5.5.5.5.5.5.5.5.5.5.5.5.5.5.5.5.5.5.5.5.5.5.5.5.5q.25.25.375.625T31 16.5q0 .5-.125.875T30.5 18l-.5.5-.5.5-.5.5-.5.5-.5.5q-.25.25-.625.375L27 21l.2813-.0938.2812-.0937-.1875.0625q-.1875.0625-.3125.1875l-.125.125L27 21.125l.0625-.0625-.1563-.4063q-.1562-.4062-.5312-.5312T25.5 20q-.5 0-.875.125T24 20.5l-.5.5-.5.5-.5.5-.5.5-.5.5-.5.5-.5.5-.5.5q-.25.25-.625.375t-.75 0Q18.25 24.75 18 24.5l-.5-.5-.5-.5-.5-.5-.5-.5-.5-.5-.5-.5-.5-.5-.5-.5-.5-.5-.5-.5-.5-.5-.5-.5-.5-.5-.5-.5-.5-.5-.5-.5-.5-.5-.5-.5-.5-.5-.5-.5-.5-.5-.5-.5-.5-.5-.5-.5-.5-.5-.5-.5q-.25-.25-.6563-.4063l-.4062-.1562L3.875 11l-.0625.0625.125-.125q.125-.125.1875-.3125l.0625-.1875-.0938.2813L4 11l.125-.375Q4.25 10.25 4.5 10l.5-.5.5-.5.5-.5.5-.5.5-.5.5-.5.5-.5.5-.5.5-.5.5-.5.5-.5.5-.5.5-.5.5-.5.5-.5.5-.5.5-.5M17.5 20q.5 0 .5-.5t.5-.5.5-.5v-1q0-.5-.5-.5t-.5-.5-.5-.5-.5-.5-.5-.5q-.5 0-.5.5t-.5.5-.5.5v1q0 .5.5.5t.5.5.5.5.5.5.5.5m8-1q.5 0 .5-.5t.5-.5.5-.5v-1-1-1q0-.5-.5-.5t-.5-.5-.5-.5-.5-.5-.5-.5-.5-.5-.5-.5-.5-.5-.5-.5-.5-.5-.5-.5-.5-.5-.5-.5-.5-.5-.5-.5-.5-.5-.5-.5-.5-.5-.5-.5-.5-.5-.5-.5h-3q-.5 0-.5.5t-.5.5-.5.5-.5.5-.5.5-.5.5-.5.5-.5.5-.5.5-.5.5-.5.5v1q0 .5.5.5t.5.5.5.5h1q.5 0 .5-.5t.5-.5.5-.5.5-.5.5-.5.5-.5.5-.5.5-.5q.5 0 .5.5t.5.5.5.5.5.5.5.5.5.5.5.5.5.5.5.5.5.5.5.5.5.5.5.5.5.5.5.5.5.5.5.5.5.5.5.5.5.5.5.5.5.5" fill="#e8d174"/><path d="M13 4.5q0-.5.5-.5h3q.5 0 .5.5t.5.5.5.5.5.5.5.5.5.5.5.5.5.5.5.5.5.5.5.5.5.5.5.5.5.5.5.5.5.5.5.5.5.5.5.5.5.5.5.5v3q0 .5-.5.5t-.5.5-.5.5q-.5 0-.5-.5t-.5-.5-.5-.5-.5-.5-.5-.5-.5-.5-.5-.5-.5-.5-.5-.5-.5-.5-.5-.5-.5-.5-.5-.5-.5-.5-.5-.5-.5-.5-.5-.5-.5-.5-.5-.5-.5-.5-.5-.5-.5-.5q-.5 0-.5.5t-.5.5-.5.5-.5.5-.5.5-.5.5-.5.5-.5.5h-1q-.5 0-.5-.5t-.5-.5-.5-.5v-1q0-.5.5-.5t.5-.5.5-.5.5-.5.5-.5.5-.5.5-.5.5-.5.5-.5.5-.5" fill="#f3e979"/><path d="M3 11.5q.25-.25.625-.375L4 11l-.2813.0938-.2812.0937.1875-.0625q.1875-.0625.3125-.1875l.125-.125L4 10.875l-.0625.0625.4063.1563Q4.75 11.25 5 11.5l.5.5.5.5.5.5.5.5.5.5.5.5.5.5.5.5.5.5.5.5.5.5.5.5.5.5.5.5.5.5.5.5.5.5.5.5.5.5.5.5.5.5.5.5.5.5.5.5.5.5.5.5q.25.25.625.375t.75 0q.375-.125.625-.375l.5-.5.5-.5.5-.5.5-.5.5-.5.5-.5.5-.5.5-.5q.25-.25.625-.375T25.5 20q.5 0 .875.125t.5313.5313l.1562.4062L27.125 21l.0625-.0625-.125.125q-.125.125-.1875.3125l-.0625.1875.0938-.2813L27 21l-.125.375q-.125.375-.375.625l-.5.5-.5.5-.5.5-.5.5-.5.5-.5.5-.5.5-.5.5-.5.5-.5.5-.5.5-.5.5-.5.5-.5.5-.5.5q-.25.25-.625.375T17.5 30q-.5 0-.875-.125T16 29.5l-.5-.5-.5-.5-.5-.5-.5-.5-.5-.5-.5-.5-.5-.5-.5-.5-.5-.5-.5-.5-.5-.5-.5-.5-.5-.5-.5-.5-.5-.5-.5-.5-.5-.5-.5-.5-.5-.5-.5-.5-.5-.5-.5-.5-.5-.5-.5-.5-.5-.5-.5-.5-.5-.5-.5-.5-.5-.5q-.25-.25-.375-.625t0-.75Q1.25 13.25 1.5 13l.5-.5.5-.5.5-.5" fill="#d99f6b"/><path d="M16 15.5q0-.5.5-.5t.5.5.5.5.5.5.5.5.5.5v1q0 .5-.5.5t-.5.5-.5.5q-.5 0-.5-.5t-.5-.5-.5-.5-.5-.5-.5-.5v-1q0-.5.5-.5t.5-.5" fill="#f3e979"/></svg>

<?xml version="1.0" encoding="UTF-8" standalone="no"?>
<!-- Created with Inkscape (http://www.inkscape.org/) -->

<svg
   xmlns:dc="http://purl.org/dc/elements/1.1/"
   xmlns:cc="http://creativecommons.org/ns#"
   xmlns:rdf="http://www.w3.org/1999/02/22-rdf-syntax-ns#"
   xmlns:svg="http://www.w3.org/2000/svg"
   xmlns="http://www.w3.org/2000/svg"
   xmlns:sodipodi="http://sodipodi.sourceforge.net/DTD/sodipodi-0.dtd"
   xmlns:inkscape="http://www.inkscape.org/namespaces/inkscape"
   version="1.1"
   id="svg10905"
   width="32"
   height="32"
   viewBox="0 0 32 32"
   sodipodi:docname="surge-alloy.svg"
   inkscape:version="0.92.5 (2060ec1f9f, 2020-04-08)">
  <metadata
     id="metadata10911">
    <rdf:RDF>
      <cc:Work
         rdf:about="">
        <dc:format>image/svg+xml</dc:format>
        <dc:type
           rdf:resource="http://purl.org/dc/dcmitype/StillImage" />
        <dc:title></dc:title>
      </cc:Work>
    </rdf:RDF>
  </metadata>
  <defs
     id="defs10909" />
  <sodipodi:namedview
     pagecolor="#ffffff"
     bordercolor="#666666"
     borderopacity="1"
     objecttolerance="10"
     gridtolerance="10"
     guidetolerance="10"
     inkscape:pageopacity="0"
     inkscape:pageshadow="2"
     inkscape:window-width="1366"
     inkscape:window-height="705"
     id="namedview10907"
     showgrid="false"
     inkscape:zoom="7.375"
     inkscape:cx="16"
     inkscape:cy="16"
     inkscape:window-x="-8"
     inkscape:window-y="-8"
     inkscape:window-maximized="1"
     inkscape:current-layer="svg10905" />
  <g
     id="g11468">
    <path
       style="fill:#000000;fill-opacity:0"
       d="M 0,0.5 V 0 H 0.5 1 1.5 2 2.5 3 3.5 4 4.5 5 5.5 6 6.5 7 7.5 8 8.5 9 9.5 10 10.5 11 11.5 12 12.5 13 13.5 14 14.5 15 15.5 16 16.5 17 17.5 18 18.5 19 19.5 20 20.5 21 21.5 22 22.5 23 23.5 24 24.5 25 25.5 26 26.5 27 27.5 28 28.5 29 29.5 30 30.5 31 31.5 32 V 0.5 1 1.5 2 2.5 3 3.5 4 4.5 5 5.5 6 6.5 7 7.5 8 8.5 9 9.5 10 10.5 11 11.5 12 12.5 13 13.5 14 14.5 15 15.5 16 16.5 17 17.5 18 18.5 19 19.5 20 20.5 21 21.5 22 22.5 23 23.5 24 24.5 25 25.5 26 26.5 27 27.5 28 28.5 29 29.5 30 30.5 31 31.5 32 H 31.5 31 30.5 30 29.5 29 28.5 28 27.5 27 26.5 26 25.5 25 24.5 24 23.5 23 22.5 22 21.5 21 20.5 20 19.5 19 18.5 18 17.5 17 16.5 16 15.5 15 14.5 14 13.5 13 12.5 12 11.5 11 10.5 10 9.5 9 8.5 8 7.5 7 6.5 6 5.5 5 4.5 4 3.5 3 2.5 2 1.5 1 0.5 0 V 31.5 31 30.5 30 29.5 29 28.5 28 27.5 27 26.5 26 25.5 25 24.5 24 23.5 23 22.5 22 21.5 21 20.5 20 19.5 19 18.5 18 17.5 17 16.5 16 15.5 15 14.5 14 13.5 13 12.5 12 11.5 11 10.5 10 9.5 9 8.5 8 7.5 7 6.5 6 5.5 5 4.5 4 3.5 3 2.5 2 1.5 1 0.5 M 17.5,30 Q 18,30 18.375,29.875 18.75,29.75 19,29.5 19.25,29.25 19.5,29 19.75,28.75 20,28.5 20.25,28.25 20.5,28 20.75,27.75 21,27.5 21.25,27.25 21.5,27 21.75,26.75 22,26.5 22.25,26.25 22.5,26 22.75,25.75 23,25.5 23.25,25.25 23.5,25 23.75,24.75 24,24.5 24.25,24.25 24.5,24 24.75,23.75 25,23.5 25.25,23.25 25.5,23 25.75,22.75 26,22.5 26.25,22.25 26.5,22 26.75,21.75 26.875,21.375 27,21 27.375,20.875 27.75,20.75 28,20.5 28.25,20.25 28.5,20 28.75,19.75 29,19.5 29.25,19.25 29.5,19 29.75,18.75 30,18.5 30.25,18.25 30.5,18 30.75,17.75 30.875,17.375 31,17 31,16.5 31,16 30.875,15.625 30.75,15.25 30.5,15 30.25,14.75 30,14.5 29.75,14.25 29.5,14 29.25,13.75 29,13.5 28.75,13.25 28.5,13 28.25,12.75 28,12.5 27.75,12.25 27.5,12 27.25,11.75 27,11.5 26.75,11.25 26.5,11 26.25,10.75 26,10.5 25.75,10.25 25.5,10 25.25,9.75 25,9.5 24.75,9.25 24.5,9 24.25,8.75 24,8.5 23.75,8.25 23.5,8 23.25,7.75 23,7.5 22.75,7.25 22.5,7 22.25,6.75 22,6.5 21.75,6.25 21.5,6 21.25,5.75 21,5.5 20.75,5.25 20.5,5 20.25,4.75 20,4.5 19.75,4.25 19.5,4 19.25,3.75 19,3.5 18.75,3.25 18.5,3 18.25,2.75 18,2.5 17.75,2.25 17.5,2 17.25,1.75 17,1.5 16.75,1.25 16.375,1.125 16,1 15.5,1 15,1 14.5,1 14,1 13.625,1.125 13.25,1.25 13,1.5 12.75,1.75 12.5,2 12.25,2.25 12,2.5 11.75,2.75 11.5,3 11.25,3.25 11,3.5 10.75,3.75 10.5,4 10.25,4.25 10,4.5 9.75,4.75 9.5,5 9.25,5.25 9,5.5 8.75,5.75 8.5,6 8.25,6.25 8,6.5 7.75,6.75 7.5,7 7.25,7.25 7,7.5 6.75,7.75 6.5,8 6.25,8.25 6,8.5 5.75,8.75 5.5,9 5.25,9.25 5,9.5 4.75,9.75 4.5,10 4.25,10.25 4.125,10.625 4,11 3.625,11.125 3.25,11.25 3,11.5 2.75,11.75 2.5,12 2.25,12.25 2,12.5 1.75,12.75 1.5,13 1.25,13.25 1.125,13.625 1,14 1.125,14.375 1.25,14.75 1.5,15 q 0.25,0.25 0.5,0.5 0.25,0.25 0.5,0.5 0.25,0.25 0.5,0.5 0.25,0.25 0.5,0.5 0.25,0.25 0.5,0.5 0.25,0.25 0.5,0.5 0.25,0.25 0.5,0.5 0.25,0.25 0.5,0.5 0.25,0.25 0.5,0.5 0.25,0.25 0.5,0.5 0.25,0.25 0.5,0.5 0.25,0.25 0.5,0.5 0.25,0.25 0.5,0.5 0.25,0.25 0.5,0.5 0.25,0.25 0.5,0.5 0.25,0.25 0.5,0.5 0.25,0.25 0.5,0.5 0.25,0.25 0.5,0.5 0.25,0.25 0.5,0.5 0.25,0.25 0.5,0.5 0.25,0.25 0.5,0.5 0.25,0.25 0.5,0.5 0.25,0.25 0.5,0.5 0.25,0.25 0.5,0.5 0.25,0.25 0.5,0.5 0.25,0.25 0.5,0.5 0.25,0.25 0.5,0.5 0.25,0.25 0.5,0.5 0.25,0.25 0.5,0.5 0.25,0.25 0.625,0.375 Q 17,30 17.5,30"
       id="path11458"
       inkscape:connector-curvature="0" />
    <path
       style="fill:#e8d174;fill-opacity:1"
       d="M 13,1.5 Q 13.25,1.25 13.625,1.125 14,1 14.5,1 15,1 15.5,1 16,1 16.375,1.125 16.75,1.25 17,1.5 q 0.25,0.25 0.5,0.5 0.25,0.25 0.5,0.5 0.25,0.25 0.5,0.5 0.25,0.25 0.5,0.5 0.25,0.25 0.5,0.5 0.25,0.25 0.5,0.5 0.25,0.25 0.5,0.5 0.25,0.25 0.5,0.5 0.25,0.25 0.5,0.5 0.25,0.25 0.5,0.5 0.25,0.25 0.5,0.5 0.25,0.25 0.5,0.5 0.25,0.25 0.5,0.5 0.25,0.25 0.5,0.5 0.25,0.25 0.5,0.5 0.25,0.25 0.5,0.5 0.25,0.25 0.5,0.5 0.25,0.25 0.5,0.5 0.25,0.25 0.5,0.5 0.25,0.25 0.5,0.5 0.25,0.25 0.5,0.5 0.25,0.25 0.5,0.5 0.25,0.25 0.5,0.5 0.25,0.25 0.5,0.5 0.25,0.25 0.5,0.5 0.25,0.25 0.5,0.5 0.25,0.25 0.5,0.5 0.25,0.25 0.375,0.625 Q 31,16 31,16.5 31,17 30.875,17.375 30.75,17.75 30.5,18 30.25,18.25 30,18.5 29.75,18.75 29.5,19 29.25,19.25 29,19.5 28.75,19.75 28.5,20 28.25,20.25 28,20.5 27.75,20.75 27.375,20.875 L 27,21 27.28125,20.90625 27.5625,20.8125 27.375,20.875 q -0.1875,0.0625 -0.3125,0.1875 l -0.125,0.125 L 27,21.125 27.0625,21.0625 26.90625,20.65625 Q 26.75,20.25 26.375,20.125 26,20 25.5,20 25,20 24.625,20.125 24.25,20.25 24,20.5 23.75,20.75 23.5,21 23.25,21.25 23,21.5 22.75,21.75 22.5,22 22.25,22.25 22,22.5 21.75,22.75 21.5,23 21.25,23.25 21,23.5 20.75,23.75 20.5,24 20.25,24.25 20,24.5 19.75,24.75 19.375,24.875 19,25 18.625,24.875 18.25,24.75 18,24.5 17.75,24.25 17.5,24 17.25,23.75 17,23.5 16.75,23.25 16.5,23 16.25,22.75 16,22.5 15.75,22.25 15.5,22 15.25,21.75 15,21.5 14.75,21.25 14.5,21 14.25,20.75 14,20.5 13.75,20.25 13.5,20 13.25,19.75 13,19.5 12.75,19.25 12.5,19 12.25,18.75 12,18.5 11.75,18.25 11.5,18 11.25,17.75 11,17.5 10.75,17.25 10.5,17 10.25,16.75 10,16.5 9.75,16.25 9.5,16 9.25,15.75 9,15.5 8.75,15.25 8.5,15 8.25,14.75 8,14.5 7.75,14.25 7.5,14 7.25,13.75 7,13.5 6.75,13.25 6.5,13 6.25,12.75 6,12.5 5.75,12.25 5.5,12 5.25,11.75 5,11.5 4.75,11.25 4.34375,11.09375 L 3.9375,10.9375 3.875,11 3.8125,11.0625 3.9375,10.9375 Q 4.0625,10.8125 4.125,10.625 L 4.1875,10.4375 4.09375,10.71875 4,11 4.125,10.625 Q 4.25,10.25 4.5,10 4.75,9.75 5,9.5 5.25,9.25 5.5,9 5.75,8.75 6,8.5 6.25,8.25 6.5,8 6.75,7.75 7,7.5 7.25,7.25 7.5,7 7.75,6.75 8,6.5 8.25,6.25 8.5,6 8.75,5.75 9,5.5 9.25,5.25 9.5,5 9.75,4.75 10,4.5 10.25,4.25 10.5,4 10.75,3.75 11,3.5 11.25,3.25 11.5,3 11.75,2.75 12,2.5 12.25,2.25 12.5,2 12.75,1.75 13,1.5 M 17.5,20 Q 18,20 18,19.5 18,19 18.5,19 19,19 19,18.5 19,18 19,17.5 19,17 18.5,17 18,17 18,16.5 18,16 17.5,16 17,16 17,15.5 17,15 16.5,15 16,15 16,15.5 16,16 15.5,16 15,16 15,16.5 q 0,0.5 0,1 0,0.5 0.5,0.5 0.5,0 0.5,0.5 0,0.5 0.5,0.5 0.5,0 0.5,0.5 0,0.5 0.5,0.5 m 8,-1 Q 26,19 26,18.5 26,18 26.5,18 27,18 27,17.5 q 0,-0.5 0,-1 0,-0.5 0,-1 0,-0.5 0,-1 Q 27,14 26.5,14 26,14 26,13.5 26,13 25.5,13 25,13 25,12.5 25,12 24.5,12 24,12 24,11.5 24,11 23.5,11 23,11 23,10.5 23,10 22.5,10 22,10 22,9.5 22,9 21.5,9 21,9 21,8.5 21,8 20.5,8 20,8 20,7.5 20,7 19.5,7 19,7 19,6.5 19,6 18.5,6 18,6 18,5.5 18,5 17.5,5 17,5 17,4.5 17,4 16.5,4 16,4 15.5,4 15,4 14.5,4 14,4 13.5,4 13,4 13,4.5 13,5 12.5,5 12,5 12,5.5 12,6 11.5,6 11,6 11,6.5 11,7 10.5,7 10,7 10,7.5 10,8 9.5,8 9,8 9,8.5 9,9 8.5,9 8,9 8,9.5 8,10 8,10.5 8,11 8.5,11 9,11 9,11.5 9,12 9.5,12 10,12 10.5,12 11,12 11,11.5 11,11 11.5,11 12,11 12,10.5 12,10 12.5,10 13,10 13,9.5 13,9 13.5,9 14,9 14,8.5 14,8 14.5,8 15,8 15,8.5 15,9 15.5,9 16,9 16,9.5 16,10 16.5,10 17,10 17,10.5 17,11 17.5,11 18,11 18,11.5 18,12 18.5,12 19,12 19,12.5 19,13 19.5,13 20,13 20,13.5 20,14 20.5,14 21,14 21,14.5 21,15 21.5,15 22,15 22,15.5 22,16 22.5,16 23,16 23,16.5 23,17 23.5,17 24,17 24,17.5 24,18 24.5,18 25,18 25,18.5 25,19 25.5,19"
       id="path11460"
       inkscape:connector-curvature="0" />
    <path
       style="fill:#f3e979;fill-opacity:1"
       d="M 13,4.5 Q 13,4 13.5,4 q 0.5,0 1,0 0.5,0 1,0 0.5,0 1,0 Q 17,4 17,4.5 17,5 17.5,5 18,5 18,5.5 18,6 18.5,6 19,6 19,6.5 19,7 19.5,7 20,7 20,7.5 20,8 20.5,8 21,8 21,8.5 21,9 21.5,9 22,9 22,9.5 q 0,0.5 0.5,0.5 0.5,0 0.5,0.5 0,0.5 0.5,0.5 0.5,0 0.5,0.5 0,0.5 0.5,0.5 0.5,0 0.5,0.5 0,0.5 0.5,0.5 0.5,0 0.5,0.5 0,0.5 0.5,0.5 0.5,0 0.5,0.5 0,0.5 0,1 0,0.5 0,1 0,0.5 0,1 Q 27,18 26.5,18 26,18 26,18.5 26,19 25.5,19 25,19 25,18.5 25,18 24.5,18 24,18 24,17.5 24,17 23.5,17 23,17 23,16.5 23,16 22.5,16 22,16 22,15.5 22,15 21.5,15 21,15 21,14.5 21,14 20.5,14 20,14 20,13.5 20,13 19.5,13 19,13 19,12.5 19,12 18.5,12 18,12 18,11.5 18,11 17.5,11 17,11 17,10.5 17,10 16.5,10 16,10 16,9.5 16,9 15.5,9 15,9 15,8.5 15,8 14.5,8 14,8 14,8.5 14,9 13.5,9 13,9 13,9.5 13,10 12.5,10 12,10 12,10.5 12,11 11.5,11 11,11 11,11.5 11,12 10.5,12 10,12 9.5,12 9,12 9,11.5 9,11 8.5,11 8,11 8,10.5 8,10 8,9.5 8,9 8.5,9 9,9 9,8.5 9,8 9.5,8 10,8 10,7.5 10,7 10.5,7 11,7 11,6.5 11,6 11.5,6 12,6 12,5.5 12,5 12.5,5 13,5 13,4.5"
       id="path11462"
       inkscape:connector-curvature="0" />
    <path
       style="fill:#d99f6b;fill-opacity:1"
       d="M 3,11.5 Q 3.25,11.25 3.625,11.125 L 4,11 3.71875,11.09375 3.4375,11.1875 3.625,11.125 Q 3.8125,11.0625 3.9375,10.9375 L 4.0625,10.8125 4,10.875 3.9375,10.9375 4.34375,11.09375 Q 4.75,11.25 5,11.5 q 0.25,0.25 0.5,0.5 0.25,0.25 0.5,0.5 0.25,0.25 0.5,0.5 0.25,0.25 0.5,0.5 0.25,0.25 0.5,0.5 0.25,0.25 0.5,0.5 0.25,0.25 0.5,0.5 0.25,0.25 0.5,0.5 0.25,0.25 0.5,0.5 0.25,0.25 0.5,0.5 0.25,0.25 0.5,0.5 0.25,0.25 0.5,0.5 0.25,0.25 0.5,0.5 0.25,0.25 0.5,0.5 0.25,0.25 0.5,0.5 0.25,0.25 0.5,0.5 0.25,0.25 0.5,0.5 0.25,0.25 0.5,0.5 0.25,0.25 0.5,0.5 0.25,0.25 0.5,0.5 0.25,0.25 0.5,0.5 0.25,0.25 0.5,0.5 0.25,0.25 0.5,0.5 0.25,0.25 0.5,0.5 0.25,0.25 0.5,0.5 0.25,0.25 0.5,0.5 0.25,0.25 0.625,0.375 0.375,0.125 0.75,0 Q 19.75,24.75 20,24.5 20.25,24.25 20.5,24 20.75,23.75 21,23.5 21.25,23.25 21.5,23 21.75,22.75 22,22.5 22.25,22.25 22.5,22 22.75,21.75 23,21.5 23.25,21.25 23.5,21 23.75,20.75 24,20.5 24.25,20.25 24.625,20.125 25,20 25.5,20 q 0.5,0 0.875,0.125 0.375,0.125 0.53125,0.53125 L 27.0625,21.0625 27.125,21 l 0.0625,-0.0625 -0.125,0.125 q -0.125,0.125 -0.1875,0.3125 L 26.8125,21.5625 26.90625,21.28125 27,21 26.875,21.375 Q 26.75,21.75 26.5,22 26.25,22.25 26,22.5 25.75,22.75 25.5,23 25.25,23.25 25,23.5 24.75,23.75 24.5,24 24.25,24.25 24,24.5 23.75,24.75 23.5,25 23.25,25.25 23,25.5 22.75,25.75 22.5,26 22.25,26.25 22,26.5 21.75,26.75 21.5,27 21.25,27.25 21,27.5 20.75,27.75 20.5,28 20.25,28.25 20,28.5 19.75,28.75 19.5,29 19.25,29.25 19,29.5 18.75,29.75 18.375,29.875 18,30 17.5,30 17,30 16.625,29.875 16.25,29.75 16,29.5 15.75,29.25 15.5,29 15.25,28.75 15,28.5 14.75,28.25 14.5,28 14.25,27.75 14,27.5 13.75,27.25 13.5,27 13.25,26.75 13,26.5 12.75,26.25 12.5,26 12.25,25.75 12,25.5 11.75,25.25 11.5,25 11.25,24.75 11,24.5 10.75,24.25 10.5,24 10.25,23.75 10,23.5 9.75,23.25 9.5,23 9.25,22.75 9,22.5 8.75,22.25 8.5,22 8.25,21.75 8,21.5 7.75,21.25 7.5,21 7.25,20.75 7,20.5 6.75,20.25 6.5,20 6.25,19.75 6,19.5 5.75,19.25 5.5,19 5.25,18.75 5,18.5 4.75,18.25 4.5,18 4.25,17.75 4,17.5 3.75,17.25 3.5,17 3.25,16.75 3,16.5 2.75,16.25 2.5,16 2.25,15.75 2,15.5 1.75,15.25 1.5,15 1.25,14.75 1.125,14.375 1,14 1.125,13.625 1.25,13.25 1.5,13 1.75,12.75 2,12.5 2.25,12.25 2.5,12 2.75,11.75 3,11.5"
       id="path11464"
       inkscape:connector-curvature="0" />
    <path
       style="fill:#f3e979;fill-opacity:1"
       d="M 16,15.5 Q 16,15 16.5,15 17,15 17,15.5 17,16 17.5,16 18,16 18,16.5 18,17 18.5,17 19,17 19,17.5 19,18 19,18.5 19,19 18.5,19 18,19 18,19.5 18,20 17.5,20 17,20 17,19.5 17,19 16.5,19 16,19 16,18.5 16,18 15.5,18 15,18 15,17.5 15,17 15,16.5 15,16 15.5,16 16,16 16,15.5"
       id="path11466"
       inkscape:connector-curvature="0" />
  </g>
</svg>
